X: 498
T: GRAND DUO concertant	 Op. 15
C: Fryderyk Chopin
%%abc-version 2.0
%%abcx-abcm2ps-target-version 5.9.1 (29 Sep 2008)
%%abc-creator hum2abc beta
%%abcx-conversion-date 2021/10/03 11:23:43
%%abc-edited-by Emilia Ziętek
%%abc-edited-by Antoni Szymański
%%abcx-initial-encoding-date 2020-03-14
%%humdrum-veritas 1774656222
%%humdrum-veritas-data 605416842
%%linebreak <none>
%%barnumbers 0
L: 1/16
M: 3/4
N: Derived from GDC-1c-Sam.krn
P: GRAND | DUO | concertant | pour Piano et Violon | sur des thêmes de | Robert le diable
V: 1 clef=tenor
V: 2 clef=treble
V: 3 clef=bass
K: E
[V:1] z12 | 
[V:2] [F4C4F,4]>[f4c4F4][f'2c'2f2][f2c2F2] | 
[V:3] [A,,4A,,,4]>[A,4F,4C,4A,,4][A2F2C2A,2][A,2F,2C,2A,,2] | 
[V:1] z12 | 
[V:2] z2 z/ A,,/C,/D,/ (13:8:13F,/A,/C/D/F/A/c/d/f/a/c'/d'/f'/ !wedge!a'2 !accent!F2- | 
[V:3] [F,,4F,,,4]x4z2 F,2- | 
[V:1] z12 | 
[V:2] (3:2:36F/^E/F/G/F/=E/ D/^^C/D/E/D/^C/ ^B,/^^A,/B,/C/B,/=A,/ G,/^^F,/G,/A,/G,/F,/ ^F,/^E,/F,/G,/F,/E,/ =E,/D,/E,/F,/E,/D,/ | 
[V:3] (3:2:36F,/^E,/F,/G,/F,/=E,/ D,/^^C,/D,/E,/D,/^C,/ ^B,,/^^A,,/B,,/C,/B,,/=A,,/ G,,/^F,/G,,/A,,/G,,/^^F,,/ ^F,,/^E,,/F,,/G,,/F,,/E,,/ =E,,/D,,/E,,/F,,/E,,/D,,/ | 
[V:1] z12 | 
[V:2] C,2 [g2c2G2] z [gcG] [GCG,]>[ACG,] [GF^B,G,] z/ [gf^B]< [gfB][a/f/B/] | 
[V:3] C,,2 [E2G,2E,2] z [EG,E,] [E,G,,E,,]>[E,G,,E,,] [D,G,,D,,] z/ [DG,D,]< [DG,D,][D/G,/D,/] | 
[V:1] z12 | 
[V:2] [=b4f4=B4]>[b4f4B4][b'2f'2b2][b'2f'2b2] | 
[V:3] [=D4G,4=D,4]>[D4G,4D,4][K:clef=treble][=d2G2=D2][K:clef=bass][D2G,2B,,2] | 
[V:1] z12 | 
[V:2] z2 z/ =D,/F,/G,/ (13:8:13B,/=D/F/G/B/=d/f/g/b/=d'/f'/g'/b'/ !wedge!=d''2 !accent!B2- | 
[V:3] [B,,4B,,,4]z4z2 !accent!B,2- | 
[V:1] z12 | 
[V:2] (3:2:36B/^A/B/c/B/=A/ G/^^F/G/A/G/^F/ ^E/^^D/E/F/E/=D/ C/^B,/C/D/C/B,/ =B,/^A,/B,/C/B,/A,/ =A,/G,/A,/B,/A,/G,/ | 
[V:3] (3:2:36B,/^A,/B,/C/B,/=A,/ G,/^^F,/G,/A,/G,/^F,/ ^E,/^^D,/E,/F,/E,/=D,/ C,/^B,,/C,/D,/C,/B,,/ =B,,/^A,,/B,,/C,/B,,/A,,/ =A,,/G,,/A,,/B,,/A,,/G,,/ | 
[V:1] z12 | 
[V:2] F,2 !wedge![c'2f2c2] z [c'fc] [cFC]>[=dFC] !wedge![cB^EC] z/ [c'b^e]<[c'be][=d'/b/e/] | 
[V:3] F,,2[K:clef=treble] [A2F2A,2] z [AFA,][K:clef=bass] [A,F,C,A,,]>[A,F,C,A,,] [G,C,G,,] z/ [^ECB,G,]<[ECB,G,][E/C/B,/G,/] | 
[V:1] z12 | 
[V:2] !wedge![=e'2b2=e2] !accent!e''2- (5:4:20e''/e'/f'/a'/=g'/ b'/b/d'/f'/e'/ g'/g/^a/c'/b/ e'/e/f/=a/=g/ | 
[V:3] [=E2C2B,2=G,2][E2C2B,2G,2][E2C2B,2G,2][E2C2B,2G,2][E2C2B,2G,2][E2C2B,2G,2] | 
[V:1] z12 | 
[V:2] !accent!=g4-{/g2f^efag=ec} ^A2 !trill!F2- F^E/=F/.^G/.A/.B/.c/ | 
[V:3] .F,,2[E2^A,2F,2][E2A,2F,2][E2A,2F,2][=D2A,2F,2E,2][C2A,2F,2E,2] | 
[V:1] z12 | 
[V:2] !wedge!d2 d''2- (5:4:20d''/d'/e'/g'/f'/ a'/a/c'/e'/d'/ f'/f/g/b/a/ d'/d/e/g/f/ | 
[V:3] !wedge!=A,,2[F2D2C2A,2][F2D2C2A,2][F2D2C2A,2][F2D2C2A,2][F2D2C2A,2] | 
[V:1] z12 | 
[V:2] a4-{/a2gfgba^fd} ^B2 !trill!G2- G^^F/G/^A/B/c/d/ | 
[V:3] G,,2[F2^B,2G,2][F2B,2G,2][F2B,2G,2][E2B,2G,2F,2][E2B,2G,2F,2] | 
[V:1] z12 | 
[V:2] e4(3z [^B^b][cc'] (3[ff'][dd'][ee'] (3[aa'][^^f^^f'][gg'] (3[^b^b'][c'c''][e'e''] | 
[V:3] (3.[C,C,,] .[ECG,E,].[ECG,E,] (3.[ECG,E,].[ECG,E,].[ECG,E,] [E2C2G,2E,2] z2z4 | 
[V:1] z12 | 
[V:2] [d''4d'4](3[c''c'] [^b^B][c'c] (3[f'f][d'd][e'e] (3[a'a][^f'^f][g'g] (3[^b'^b][c''c'][e''e'] | 
[V:3] (3[B,,B,,,] [ECG,E,][ECG,E,] (3[ECG,E,][ECG,E,][ECG,E,] [E2C2G,2E,2] z2z4 | 
[V:1] z12 | 
[V:2] [d''2d'2][c''2c'2]z4!accent!D2 {/E2D2^^C2D2^E2^^F2G2^A2B2c2d2e2f2g2^a2b2c'2d'2e'2f'2g'2a'2b'2} c''z/d''/ | 
[V:3] (3A,,[CE,][CE,] (3[CE,][CE,]A,, (3G,,[CE,][CE,] (3[CE,][CE,]G,, (3^^F,,[CD,][CD,] (3[CD,][CD,]F,, | 
[V:1] z12 | 
[V:2] c''2>b'2 (3.^a'.g'.e' (3.d'.c'.b (3.^a.g.e (3.d.c.G | 
[V:3] (3G,,[B,D,][B,D,] (3[B,D,][B,D,]G,, (3E,,[CB,G,E,][CB,G,E,] (3[CB,G,E,][CB,G,E,][CB,G,E,] (3[CB,G,E,][CB,G,E,][CB,G,E,] (3[CB,G,E,][CB,G,E,][=DB,G,^E,] | 
[V:1] z12 | 
[V:2] !accent!F4G2!accent!G4^A2 & (3z [^DB,][DB,] (3[DB,][DB,][DB,] (3[CB,][CB,][CB,] (3[^^C^A,][CA,][CA,] (3[DA,][DA,][DA,] (3[^^F^D=C][FDC][FDC] | 
[V:3] F,4^E,2=E,2D,2 (3[D,D,,][D,D,,][D,D,,] | 
[V:1] z12 | 
[V:2] [B2G2] !accent!B2=c2 cB (3:2:5!arpeggio!=FG/F/^E/F/ [d3/^A3/][^c/^A/] & (3[DB,][DB,][DB,] (3[=FB,][FB,][=GF=D] (3[GE][GE][GE] (3[^GD][GD][GD] !arpeggio!^D2=E2 | 
[V:3] (3[D,G,,][D,G,,][G,G,,] (3[=G,=G,,][G,G,,][G,G,,] (3[G,=C,][G,C,][G,C,] (3^E,E,E, F,2F,,2 | 
[V:1] B,4!wedge!D8 | 
[V:2] [B12D12] | 
[V:3] [F,12B,,12] | 
[V:1] z12 | 
[V:2] (3D,B,F, (3B,DB (3FBd (3bfb b'2 z2 | 
[V:3] (3:2:6F,,^E,,F,,G,,F,,E,, .F,,2 z2 .F,,2 z2 & B,,,12 | 
[V:1] D4F8 | 
[V:2] [B12D12] | 
[V:3] [F,12B,,12] | 
[V:1] z12 | 
[V:2] (3D,A,F, (3A,DA (3FBd (3afa!trill!b4 | 
[V:3] (3:2:6F,,^E,,F,,G,,F,,E,, F,,2 z2 F,,2 z2 & B,,,12 | 
[V:1] z12 | 
[V:2] !accent!!trill!b12 | 
[V:3] B,,,2 z2z4z4 | 
[V:1] z12 | 
[V:2] !accent!!trill!b12 | 
[V:3] z2 B,2[E2G,2][F2B,2][G2E2][A2F2] | 
[V:1] z12 | 
[V:2] !trill!b12 | 
[V:3] [F2B,2]B2B,8 | 
[V:1] z12 | 
[V:2] !trill!b12 | 
[V:3] z2 B,2[E2G,2][F2B,2][G2E2][A2F2] | 
[V:1] z12 | 
[V:2] !trill!b12 | 
[V:3] [F2B,2]d2B,4[F2B,2]f2 | 
[V:1] z12 | 
[V:2] !fermata!b12{/^A2B2c2d2e2f2g2^a2b2c'2} | 
[V:3] B,4z4z4 | 
[V:1] z12 | 
[V:2] d'2 z2z4z4 | 
[V:3] z12 | 
[V:1] E8G2 z2 | 
[V:2] z12 | 
[V:3] z12 | 
[V:1] B,8E2 z2 | 
[V:2] z12 | 
[V:3] z12 | 
[V:1] G,8G,4 | 
[V:2] [G8E8B,8][G4E4B,4] | 
[V:3] (3B,,^A,,B,, (3C,B,,A,, B,,2 z2 B,,2 z2 & E,,4-E,,2 x2 E,,2 x2 | 
[V:1] B,4A,4G,4 | 
[V:2] [B4G4][A4F4][G4E4] & B,8x4 | 
[V:3] (3B,,^A,,B,, (3C,B,,A,, B,,2 z2 B,,2 z2 & E,,4-E,,2 x2 E,,2 x2 | 
[V:1] {/G,}F,4E,4F,4 | 
[V:2] [F4B,4][E4G,4][F4B,4] | 
[V:3] (3B,,^A,,B,, (3C,B,,A,, B,,2 z2 B,,2 z2 & E,,4-E,,2 x2 E,,2 x2 | 
[V:1] ^A,6B,C B,2 z2 | 
[V:2] ^^F8[G4E4] & E8x4 | 
[V:3] (3B,,^A,,B,, (3C,B,,A,, B,,2 z2 B,,2 z2 & E,,4-E,,2 x2 E,,2 x2 | 
[V:1] B,2E4<E4D2 | 
[V:2] z4[e4B4E4][e4B4E4] | 
[V:3] z4G,4G,4 | 
[V:1] D4C4z2 C2 | 
[V:2] z4[c4E4][c4E4] | 
[V:3] z4A,4A,4 | 
[V:1] C2F4<F4E2 | 
[V:2] z4[c4F4E4][c4F4E4] | 
[V:3] z4^A,4A,4 | 
[V:1] D8{/EDFEDE} C2F2 | 
[V:2] !arpeggio![d4B4F4D4]z4!fermata!z4 | 
[V:3] !arpeggio![B,4F,4B,,4]z4!fermata!z4 | 
[V:1] !fermata!B,4z4z4 | 
[V:2] !fermata!z4z2 B2e2B2 | 
[V:3] !fermata!z4z4[E4B,4G,4] | 
[V:1] z12 | 
[V:2] B3d/c/ B2B2b2b2 | 
[V:3] E4D2 x2x4 & [A,4F,4]-[A,2F,2] z2[A,4D,4B,,4] | 
[V:1] z4z2 B,2E2B,2 | 
[V:2] b2>g2 e2 z2z4 | 
[V:3] [G,4E,4]z4[E4B,4G,4] | 
[V:1] B,6DC .B,2.A,2 | 
[V:2] z4z2 B2b2b2 | 
[V:3] !accent!E4D4x4 & [A,8F,8][A,4D,4B,,4] | 
[V:1] B,2>A,2.G,4z2 .B,2 | 
[V:2] b2>g2 e2 B2e2B2 | 
[V:3] [G,4E,4]z4[E4B,4G,4] | 
[V:1] B,6FD B,2A,2 | 
[V:2] B3d/c/ B2B2b2b2 | 
[V:3] E4D4x4 & [A,8F,8][A,4D,4B,,4] | 
[V:1] B,2>A,2 G,2 z2 G,3^A, | 
[V:2] [b2B2]>g2 e2 z2 [G2E2] z2 | 
[V:3] [G,4E,4]z4C,2 z2 | 
[V:1] B,8C3D | 
[V:2] [B2F2D2] z2z4[B2F2D2] z2 | 
[V:3] F,2 z2z4F,2 z2 | 
[V:1] E4=G6^A,2 | 
[V:2] [B8=G8E8C8][^A4F4E4C4] | 
[V:3] F,8[F,4F,,4] | 
[V:1] B,8z4 | 
[V:2] [B4D4]z4.[d4F4D4] | 
[V:3] [F,4B,,4]z4[B,4F,4B,,4] | 
[V:1] z4z4B,4 | 
[V:2] .[B4D4]z4D4 | 
[V:3] [F,4B,,4]z4[F,4B,,4] | 
[V:1] B,4A,2 z2E4 | 
[V:2] E4>z4z4 | 
[V:3] (3E,^D,E, (3F,E,D, E,2 z2 A,2 z2 & =C,4C,2 x2 C,2 x2 | 
[V:1] E4D2 z2 B,3B, | 
[V:2] !accent!F4>z4 D2 z2 | 
[V:3] (3A,G,A, (3B,A,G, A,2 z2 F,2 z2 & B,,2 z2z4B,,2 x2 | 
[V:1] B,4A,4F3E | 
[V:2] !accent!E4>z4z4 | 
[V:3] (3E,^D,E, (3F,E,D, E,2 z2 A,2 z2 & =C,4C,2 x2 C,2 x2 | 
[V:1] E4D4B,4 | 
[V:2] !accent!F4>z4 D2 z2 | 
[V:3] (3A,G,A, (3B,A,G, A,2 z2 x2 z2 & B,,2 z2z4[B,,2F,2] x2 | 
[V:1] E8=G,4 | 
[V:2] E4z4[=G4E4G,4] | 
[V:3] [E,4=C,4]z4[C,4=C,,4] | 
[V:1] A,4A,3B,/A,/ =G,2A,2 | 
[V:2] .[A4E4A,4]z4.[A4E4] | 
[V:3] .[=C,4=C,,4]z4.[F,4C,4] | 
[V:1] B,4>z4z4 | 
[V:2] [B2D2] z2 [b2B2] z2 [b2B2] z2 | 
[V:3] [F,2B,,2] z2z4z4 | 
[V:1] z12[K:clef=treble] | 
[V:2] .[b2B2] z2 .[b2B2] z2 .[b2B2] z2 | 
[V:3] z12 | 
[V:1] B4>e4d2f2 | 
[V:2] .[b2g2B2] z2 .[b2g2B2] z2 .[b2a2B2] z2 | 
[V:3] [E,2B,,2E,,2] z2 .[E,2B,,2E,,2] z2 .[E,2B,,2E,,2] z2 | 
[V:1] B8z4 | 
[V:2] .[b2g2B2] z2 .[b2g2B2] z2 .[b2g2B2] z2 | 
[V:3] [E,2B,,2E,,2] z2 [E,2B,,2E,,2] z2 [E,2B,,2E,,2] z2 | 
[V:1] B4>e4d2!accent!f2 | 
[V:2] .[b2g2B2] z2 .[b2g2B2] z2 .[b2a2B2] z2 | 
[V:3] [E,2B,,2E,,2] z2 [E,2B,,2E,,2] z2 [E,2B,,2E,,2] z2 | 
[V:1] B2>c2B4z2 A2 | 
[V:2] [b2g2B2] z2 [b2g2B2] z2 [b2g2B2] z2 | 
[V:3] [E,2B,,2E,,2] z2 [E,2B,,2E,,2] z2 [E,2B,,2E,,2] z2 | 
[V:1] A2>G2A2>G2A3G | 
[V:2] [^E2D2][E2D2][E2D2][E2D2][E2D2][E2D2] | 
[V:3] B,2B,2B,2B,2B,2B,2 | 
[V:1] c8z2 c2 | 
[V:2] [F2C2][F2C2][F2C2][F2C2][F2C2][F2C2] | 
[V:3] .A,2.A,2.A,2.A,2.A,2.A,2 | 
[V:1] c2>^B2c2>B2c3B | 
[V:2] [A2F2][A2F2][A2F2][A2F2][A2F2][A2F2] | 
[V:3] .^D2.D2.D2.D2.D2.D2 | 
[V:1] e8z2 e2 | 
[V:2] [G2E2][G2E2][G2E2][G2E2][G2E2][G2E2] | 
[V:3] .C2.C2.C2.C2.C2.C2 | 
[V:1] e2>d2e2>d2e3d | 
[V:2] [^B2A2][B2A2][B2A2][B2A2] [=c2A2][c2A2] | 
[V:3] .F2.F2.F2.F2 F2F2 | 
[V:1] b2^a2=a2g2f2e2 | 
[V:2] =B4z4z4 | 
[V:3] G4z4z4 | 
[V:1] =d2c2B2A2 (3A2G2F2 | 
[V:2] [=d2B2][c2A2] [B2G2=D2][A2F2C2][G2^E2B,2][F2C2A,2] | 
[V:3] [G,2^E,2][A,2F,2] ^E,,2F,,2G,,2A,,2 | 
[V:1] B4>e4 (3e2d2.c2 | 
[V:2] [=E2G,2]B,2[G2E2]B,2[E2G,2]B,2 | 
[V:3] B,,12 | 
[V:1] =c4>A4F2D2 | 
[V:2] A,2D2[A2F2]D2A,2F2 & A,12 | 
[V:3] [F,12B,,12] | 
[V:1] E2 z2z4z4 | 
[V:2] (3:2:6EFEeE^^F (3:2:6GAGgG^A (3:2:6BcBbBd | 
[V:3] [E,2E,,2][B,2G,2][B,2G,2][B,2G,2][B,2G,2][B,2G,2] | 
[V:1] z12[K:clef=tenor] | 
[V:2] (3:2:6efee'e^^f (3:2:6gagg'g^b (3:2:6c'd'c'c''c'e' | 
[V:3] [D,2D,,2][E2B,2G,2][E2B,2G,2][E2B,2G,2] [C,2C,,2][C2G,2] | 
[V:1] G4-G2F2D2C2 | 
[V:2] !wedge![g'2d'2g2] [G2D2G,2] .[G2D2G,2].[G2D2G,2].[G2D2G,2].[G2D2G,2] | 
[V:3] [^B,,12^B,,,12] | 
[V:1] C2C/^B,/C/D/ B,2A2G2D2 | 
[V:2] .[G2F2D2G,2][G2F2D2G,2].[G2F2D2G,2].[G2F2D2G,2].[G2F2D2G,2].[G2F2D2G,2] | 
[V:3] [G,,12G,,,12] | 
[V:1] E4z4z4 | 
[V:2] (3:2:6EFEeE^^F (3:2:6GAGgG^B (3:2:6cdcc'cd | 
[V:3] [C,2C,,2][G,2E,2][G,2E,2][G,2E,2][G,2E,2][G,2E,2] | 
[V:1] z12 | 
[V:2] (3:2:6efee'ef (3:2:6=gag=g'g^a (3:2:6b=c'bb'be' | 
[V:3] [=C,2=C,,2][E2=G,2][E2G,2][E2G,2] [B,,2B,,,2][E2B,2G,2] | 
[V:1] F4>!mordent!E4 ^DEcB | 
[V:2] !wedge![f'2c'2f2] [F2C2F,2] [F2C2F,2][F2C2F,2][F2C2F,2][F2C2F,2] | 
[V:3] [^A,,12^A,,,12] | 
[V:1] B^AA=G GFF^E EFFC | 
[V:2] [F2E2C2F,2][F2E2C2F,2][F2E2C2F,2][F2E2C2F,2] [F2E2^A,2F,2][F2E2A,2F,2] | 
[V:3] [F,,12F,,,12] | 
[V:1] =D4B,,4=D,4 | 
[V:2] z =d'=d''[c''c'] .[=c''=c']bb'[_b'_b] .[a'a]gg'[=g'=g] | 
[V:3] [B,,2B,,,2] [=D2B,2F,2][D2B,2F,2][D2B,2F,2][D2B,2F,2][D2B,2F,2] | 
[V:1] F,4B,4=D4 | 
[V:2] [f'f]=f=f'[e'e] !wedge![_e'_e]=d=d'[c'c] !wedge![=c'=c][bB][_b_B][aA] | 
[V:3] [=D2B,2F,2][D2B,2F,2][D2B,2F,2][D2B,2F,2][D2B,2F,2][D2B,2F,2] | 
[V:1] ^E6FE DEBA | 
[V:2] [g8G8][b4B4] | 
[V:3] [B,,2B,,,2] .[=D2G,2=F,2] .[D2G,2F,2].[D2G,2F,2].[D2G,2F,2].[D2G,2F,2] | 
[V:1] AGGF F^EE=D DCCB, | 
[V:2] [=d'4=d4][=f'4=f4][g'4g4] | 
[V:3] .[=D2G,2=F,2].[D2G,2F,2].[D2G,2F,2].[D2G,2F,2].[D2G,2F,2].[D2G,2F,2] | 
[V:1] A,4F,4A,4 | 
[V:2] !wedge![f'f] c'c''[=c''=c'] [b'b]_b_b'[a'a] [g'g]=g=g'[f'f] | 
[V:3] [A,,2A,,,2] [F2C2^F,2] [F2C2F,2][F2C2F,2][F2C2F,2][F2C2F,2] | 
[V:1] C4F4A4 | 
[V:2] !wedge![=f'=f]ee'[_e'_e] [=d'=d]cc'[=c'=c] .[bB]Aa[gG] | 
[V:3] [F2C2F,2][F2C2F,2][F2C2F,2][F2C2F,2][F2C2F,2][F2C2F,2] | 
[V:1] [f8F8][f4A4] | 
[V:2] [f2F2] [a'f']a [f'=d']a[f'd']f [=d'a]f[d'a]=d | 
[V:3] [=D,2=D,,2] [F2=D2A,2F,2][F2D2A,2F,2][F2D2A,2F,2][F2D2A,2F,2][F2D2A,2F,2] | 
[V:1] [f4A4][A4F4][^B,4F,4] | 
[V:2] [af]A[f=d]F [dA]=D[AF]A, [F=D]A,^B,F, | 
[V:3] [F2=D2A,2F,2]z2z4=D,,4 | 
[V:1]  [K:A] [C4^E,4]z4z4 | 
[V:2]  [K:A] [C4^E,4]z4z4 | 
[V:3]  [K:A] C,,4.C,4.!accent!C4 | 
[V:1] z4z2 A2^d2A2 | 
[V:2] =DFAc dfac' d'f'd''a' | 
[V:3] z4[D4F,4]!accent![C,4-C,,4] | 
[V:1] G3B/A/G4z4 | 
[V:2] c''b'g'd' c'bgd cBGD | 
[V:3] x4[B,4G,4]!accent![C,4-C,,4] & C,8x4 | 
[V:1] z4z2 G2c2G2 | 
[V:2] C^EG^B c^egb c'^e'c''g' | 
[V:3] x4[C4^E,4]!accent![C,4-C,,4] & C,8x4 | 
[V:1] F3A/G/F4z4 | 
[V:2] =b'a'f'c' bafc BAFC | 
[V:3] x4[A,4F,4]!accent![C,4-C,,4] & C,8x4 | 
[V:1] z4z2 F2B2F2 | 
[V:2] B,DF^A Bdf^a bd'b'f' | 
[V:3] x4[B,4D,4]!accent![C,4-C,,4] & C,8x4 | 
[V:1] {/F}^E12{/^DE} | 
[V:2] =a'g'^e'c' bg^ec ^Bc{/=e}dc | 
[V:3] x4[B,4^E,4]!accent![C,4C,,4] & C,8x4 | 
[V:1] F4G4A4 | 
[V:2] ca^Bc =Bg^AB =AfGA | 
[V:3] C,FCA, C,^ECG, C,^D^B,F, | 
[V:1] G2>c2C4!accent!C,4 | 
[V:2] G^ec^E CGEG, ^E,CG,C, | 
[V:3] [C4^E,4C,4]z4z4 | 
[V:1] =D,2>F,2 .A,.C.D.^E .F.A.d.A | 
[V:2] z4z2 [a2A2][d'2d2][a2A2] | 
[V:3] .C,,4[D4A,4F,4]!accent![C,4-C,,4] | 
[V:1] c!mordent!B^AB cBdB =AGBG | 
[V:2] [g2G2][bB][aA][g8G8]- | 
[V:3] x4[D4B,4G,4]!accent!C,,4 & C,8x4 | 
[V:1] F^E.C,.^E, .G,.^B,.C.^D .^E.G.c.G | 
[V:2] [g4G4]>[g4G4][c'2c2][g2G2] | 
[V:3] C,4[C4G,4^E,4]!accent![C,4-C,,4] | 
[V:1] =B!mordent!AGA BAcA GFAF | 
[V:2] [f2F2][aA][gG][f8F8]- | 
[V:3] x4[C4A,4F,4]!accent!C,,4 & C,8x4 | 
[V:1] ED.B,,.D, .F,.^A,.B,.C .D.F.B.F | 
[V:2] [f4F4]>[f4F4][b2B2][f2F2] | 
[V:3] C,4[B,4F,4D,4]!accent!C,,4 | 
[V:1] AG^^FG AGcB G^ECB, | 
[V:2] [^e8^E8]z4 | 
[V:3] C,4.[C4B,4G,4]!accent!C,4 | 
[V:1] G,A,F,.A, .C.^E.F.G .A^AB^B | 
[V:2] [a8c8A8][f4c4F4] | 
[V:3] [F,8F,,8][A,4A,,4] | 
[V:1] c12- | 
[V:2] z .^E,G,C ^EG,CE, G,C^EG, | 
[V:3] [C,12-C,,12] | 
[V:1] c8A3B | 
[V:2] z F,A,C FA,CF, A,CFA, | 
[V:3] [C,12F,,12] | 
[V:1] c12 | 
[V:2] z ^E,G,C ^EG,CE, G,CEG, | 
[V:3] [C,12-C,,12] | 
[V:1] c8C3^D | 
[V:2] z F,A,C FA,CF, A,^DFA, | 
[V:3] [C,8F,,8]B,,4 | 
[V:1] E12 | 
[V:2] z G,B,E GB,EG, B,EGB, | 
[V:3] [E,12-E,,12] | 
[V:1] E8=C3=D | 
[V:2] z A,=CE ACEA, CEAC | 
[V:3] [E,12A,,12] | 
[V:1] E12 | 
[V:2] z G,B,E GB,EG, B,EGB, | 
[V:3] [E,12-E,,12] | 
[V:1] AE!wedge!=C!wedge!A, !wedge!E,!wedge!=C,[K:clef=bass]!wedge!A,,!wedge!E,,2< =C,,2D,, | 
[V:2] z A,=CE ACEA, CEAC | 
[V:3] [E,12A,,12] | 
[V:1] E,,12- | 
[V:2] [^G2B,2] (3^^f'e''g' (3^e'b'^f' (3^d'b'=e' (3c'a'=d' (3^ba'c' | 
[V:3] [E,2E,,2][K:clef=treble] be ae ge fE eE | 
[V:1] E,,12- | 
[V:2] (3^ae'b (3ge'=a (3^^fe'g (3^eb^f (3^db=e (3ca=d | 
[V:3] dE cE BE AE[K:clef=bass] GE, FE, | 
[V:1] E,,12- | 
[V:2] (3^Bac (3^Ae=B (3Ge=A (3^^FeG (3^EB^F (3^DB=E | 
[V:3] EE, DE, CE, B,E, A,E, G,E,, | 
[V:1] E,,12- | 
[V:2] (3CA=D (3^B,AC (3^A,E=B, (3G,E=A, (3^^F,EG, (3^F,B,^F, | 
[V:3] F,E,, E,E,, D,E,, C,E,, B,,E,, A,,E,,- | 
[V:1] [M:6/8]E,,2 z2 z2z4z2 | 
[V:2] [M:6/8]E,2z4[e6B6G6E6D6] | 
[V:3] [M:6/8][G,,2E,,2]z4[E,6B,,6E,,6] | 
[V:1] z12 | 
[V:2] !accent![e6B6G6E6D6]!accent![e6B6G6E6D6] | 
[V:3] [E,6B,,6E,,6][E,6B,,6E,,6] | 
[V:1] [K:clef=tenor]z4z2!accent!E4z2 | 
[V:2] !accent![e4B4G4E4D4]z2 .[E2D2B,2]z4 | 
[V:3] [E,4B,,4E,,4]z2 .E,2z4 | 
[V:1] !accent!E4z2!accent!E4z2 | 
[V:2] .[E2C2A,2]z4[E2B,2]z4 | 
[V:3] .E,2z4.[E,2G,2]z4 | 
[V:1] E2 z2 !upbow!E2A4G2 | 
[V:2] [C2A,2] z2 E2 [A2C2] z2 [G2C2] | 
[V:3] [E,2A,,2] z2 [E,2A,,2] [E,2A,,2] z2 [E,2A,,2] | 
[V:1] A4E2A4G2 | 
[V:2] [A2C2] z2 [E2C2] [A2C2] z2 [G2C2] | 
[V:3] [E,2A,,2] z2 [E,2A,,2] [E,2A,,2] z2 [E,2A,,2] | 
[V:1] A4E2A4G2 | 
[V:2] [A2C2] z2 E2 .A2.A2.G2 | 
[V:3] [E,2A,,2] z2 E,2 .A,2.A,2.G,2 | 
[V:1] .F2.G2.A2B6 | 
[V:2] .F2.G2.A2[b6B6A6] | 
[V:3] .F,2.G,2.A,2[B,6F,6B,,6] | 
[V:1] E4E2[K:clef=treble]d4B2 | 
[V:2] [e4G4]z2 [=d2F2=D2] z2 [B2F2D2] | 
[V:3] [B,4E,4]z2 B,,2 z2 D,2 | 
[V:1] ^A4!accent!F2f4e2 | 
[V:2] [^A2F2C2] z2 F2[E6F6] | 
[V:3] F,2z4.F,2.G,2.^A,2 | 
[V:1] e2d2!wedge!c2 c2B2!wedge!A2 | 
[V:2] [F2D2] z2 [F2C2] [F2B,2] z2 [A2F2B,2] | 
[V:3] [B,2B,,2] z2 .C,2 .D,2 z2 ^D,2 | 
[V:1] G4G2 {/B} !wedge!A2!wedge!G2!wedge!A2 | 
[V:2] [G2E2B,2] z2 =D2 [A2C2]z4 | 
[V:3] E,2z4[E,2A,,2]z4 | 
[V:1] B2 z2 !wedge!B2e4z2 | 
[V:2] [B2G2E2B,2]z4z4[B2E2B,2] | 
[V:3] [E,2E,,2]z4z4[G,2E,2] | 
[V:1] z4B2f4z2 | 
[V:2] [B2F2B,2]z4z4[B2F2B,2] | 
[V:3] [A,2^D,2]z4z4[A,2D,2] | 
[V:1] z4B2e4z2 | 
[V:2] [B2E2B,2]z4z4[B2G2E2] | 
[V:3] [G,2E,2] z2 z2z4[E,2E,,2] | 
[V:1] z4B2f4z2[K:clef=bass] | 
[V:2] [B2A2F2B,2]z4z4[B2A2F2B,2] | 
[V:3] [^D,2^D,,2]z4z4[D,2D,,2] | 
[V:1] E,,2z4E,2z4 | 
[V:2] [B2G2E2B,2] z2 .[bB].[bB] [e'2e2] z2 .[^d'^d].[d'd] | 
[V:3] [E,2E,,2] z2 [E2B,2G,2] [E2B,2G,2] z2 [E2B,2G,2] | 
[V:1] C,2 z2 z2 F,2 z2 z2 | 
[V:2] .[f'2f2] z2 .[e'e].[e'e] [^d'2^d2] z2 .[c'c].[c'c] | 
[V:3] C,2 z2 [E2^A,2F,2] [E2A,2F,2] z2 [E2A,2F,2] | 
[V:1] ^D,2 z2 z2 B,2 z2 z2 | 
[V:2] .[c'2c2] z2 .[bB].[bB] .[^a2^A2] z2 .[bB].[bB] | 
[V:3] ^D,2 z2 [F2B,2=A,2] [F2B,2A,2] z2 [F2B,2A,2] | 
[V:1] B,,2 z2 z2 B,2 z2 z2 | 
[V:2] .[^d'2^d2] z2 .[c'c].[c'c] .[b2B2] z2 .[aA].[aA] | 
[V:3] .B,,2 z2 [^D2A,2] [D2A,2] z2 [D2A,2] | 
[V:1] E,2 z2 z2 E,2 z2 z2 | 
[V:2] [g2G2] z2 .[e'e].[e'e] .[^d'2^d2] z2 .[e'e].[e'e] | 
[V:3] [E,2E,,2] z2 [E2B,2G,2] [E2B,2G,2] z2 [E2B,2G,2] | 
[V:1] C,2 z2 z2 F,,2 z2 z2 | 
[V:2] .[f2F2] z2 [e'e][e'e] [^d'2^d2] z2 .[c'c].[c'c] | 
[V:3] C,2 z2 [E2^A,2F,2] [E2A,2F,2] z2 [E2A,2F,2] | 
[V:1] B,,2 z2 z2 B,2 z2 z2 | 
[V:2] .!accent![c'2c2] z2 [bB][bB] .!accent![c'2c2] z2 .[bB].[bB] | 
[V:3] B,,2z2[E2B,2G,2] B,,2z2[^E2=D2G,2] | 
[V:1] B,,2 z2 z2 B,2 z2 z2 | 
[V:2] .[c'2c2] z2 .[bB].[bB] .[a2^d2B2A2]z.[gdBA].[f2d2B2A2] | 
[V:3] B,,2z2[F2^D2A,2] B,,2z2[F2B,2] | 
[V:1] E,2 z2 z2[K:clef=tenor]E6 | 
[V:2] [e4G4]z2z4z2 | 
[V:3] [E4B,4E,4]z2z4z2 | 
[V:1] E6=C4D2 | 
[V:2] [A12A,12] | 
[V:3] [=F,12=F,,12] | 
[V:1] E2 z2 z2E6 | 
[V:2] [G4E4B,4]z2z4z2 | 
[V:3] [E,4E,,4]z2z4z2 | 
[V:1] E6=C4D2 | 
[V:2] [A12A,12] | 
[V:3] [=F,12=F,,12] | 
[V:1] E4z2!accent!E4z2 | 
[V:2] [G4E4B,4]z2[e4B4G4E4D4]z2 | 
[V:3] [E,4E,,4]z2[B,4E,4]z2 | 
[V:1] !accent!E4z2!accent!E4z2 | 
[V:2] [e2B2G2E2D2]z4[e2B2G2E2D2]z4 | 
[V:3] [B,2E,2]z4[B,2E,2]z4 | 
[V:1] E2 z2 !upbow!E2A4G2 | 
[V:2] [A2C2] z2 E2 [A2C2]z2[G2C2] | 
[V:3] A,,2 z2 [E,2A,,2] [E,2A,,2]z2[E,2A,,2] | 
[V:1] A4E2A4G2 | 
[V:2] [A2C2]z2[E2C2] [A2C2]z2[G2C2] | 
[V:3] [E,2A,,2]z2[E,2A,,2] [E,2A,,2]z2[E,2A,,2] | 
[V:1] A4E2A4G2 | 
[V:2] [A2C2] z2 .E2 .A2.A2.G2 | 
[V:3] [E,2A,,2] z2 .E,2 .A,2.A,2.G,2 | 
[V:1] .F2.G2.A2B6 | 
[V:2] .F2.G2.A2[b6^d6B6A6] | 
[V:3] .F,2.G,2.A,2[B,6F,6B,,6] | 
[V:1] E2 z2[K:clef=treble] E2d4B2 | 
[V:2] [e4G4]z2 [=d2F2=D2] z2 [B2F2D2] | 
[V:3] [B,4E,4]z2 [B,2B,,2] z2 D,2 | 
[V:1] ^A4F2f4!accent!e2- | 
[V:2] [^A4F4C4]z2z4z2 | 
[V:3] F,4z2z4z2 | 
[V:1] e2!wedge!c2!accent!d2- d2!wedge!^B2!accent!c2- | 
[V:2] [F6D6][^A6E6] | 
[V:3] F,12 & B,,6C,6 | 
[V:1] c2!wedge!^A2!accent!B2 B2=A2F2 | 
[V:2] [B6F6B,6][A6F6=C6] | 
[V:3] D,6^D,6 | 
[V:1] E12- | 
[V:2] [A6E6^C6][^A6^^F6C6] | 
[V:3] E,12 | 
[V:1] E4F2 E2D2B,2 | 
[V:2] [B6G6D6][G6D6] | 
[V:3] [E,12E,,12] | 
[V:1] A,2 z2 z2z4z2[K:clef=bass] | 
[V:2] [A2C2] cGBA Aca^egf | 
[V:3] .A,,2 !accent![E2E,2][C2A,2] A,,2 !accent![^E2^E,2][C2A,2] | 
[V:1] z12 | 
[V:2] {/f} !wedge!a'2^e'f'^bc' ^efc=gf=e | 
[V:3] .A,,2 !accent![F2F,2][C2A,2] .^A,,2 !accent![F2F,2][E2C2] | 
[V:1] B,, z !wedge!B,,!wedge!D,!wedge!F,!wedge!B, D2 z2 !accent!F2- | 
[V:2] d4x2 z2 [B2D2][B2D2] & z2 [F2D2][F2D2]x6 | 
[V:3] B,,2z4A,,2z4 | 
[V:1] F2E^DFE E2B,C=DE | 
[V:2] z2 [B2E2D2][B2E2D2] z2 [B2G2D2][B2G2D2] | 
[V:3] G,,2z4E,,2z4 | 
[V:1] C2 z2 z2z4z2 | 
[V:2] [c2A2C2] cGBA Aca^egf | 
[V:3] A,,2 [E2E,2][C2A,2] A,,2 [^E2^E,2][C2A,2] | 
[V:1] z12[K:clef=tenor] | 
[V:2] {/f} a'2 {/a'g'} f'2{/f'=f'}e'2 {/e'd'} c'2{/c'b}^a2{/=gf}e2 | 
[V:3] A,,2 !accent![F2F,2][C2A,2] ^A,,2!accent![F2F,2][E2C2] | 
[V:1] F,2{/F,}B,2{/B,}D2 {/D} F2{/F}B2{/B}d2 | 
[V:2] z2 .[F2D2].[F2D2] z2 .[F2D2].[F2D2] | 
[V:3] B,,6B,6 | 
[V:1] ecBAGF F2E^DE=D | 
[V:2] z2 .[G2D2].[G2D2] z2 .[G2D2].[G2D2] | 
[V:3] E,6E,,6 | 
[V:1] CEGAcB2< A2GFE | 
[V:2] [A4C4][A2^D2]B4E2 & x6=D6 | 
[V:3] A,,4[F,2B,,2][G,6E,6] | 
[V:1] CEAcBA AGBGED | 
[V:2] c2G2A2B4E2 & C4^D2=D6 | 
[V:3] [A,4A,,4][F,2B,,2][G,6E,6] | 
[V:1] CEAc!wedge!!accent!C2 CEAc!wedge!!accent!C2 | 
[V:2] [c4C4][e2E2][a4A4][g2G2] | 
[V:3] A,,2[C2E,2][C2E,2] [C2E,2][C2E,2][C2E,2] | 
[V:1] =CEA=c!wedge!!accent!C2 CE=Gc!wedge!!accent!C2 | 
[V:2] [a4A4][e2E2][a4=c4A4][=g2_B2=G2] | 
[V:3] A,,2[=C2E,2][C2E,2] =C,2[E2C2_B,2][E2C2B,2] | 
[V:1]  [K:F] !accent!A12{/GA} | 
[V:2]  [K:F] [f2A2F2] [c''a']g'[a'f']e' [f'd']c'[d'b]a[bg]f | 
[V:3]  [K:F] F,,2 [F2A,2][F2A,2] C,2[F2A,2][F2A,2] | 
[V:1] A2BGEG D2C!wedge!E!wedge!Gc | 
[V:2] [g2e2] z2 c'2!accent!!trill!g'6{/f'g'} | 
[V:3] C,2[E2B,2][E2B,2] C,2[E2B,2][E2B,2] | 
[V:1] {/B}!trill!A12{/GA} | 
[V:2] a'2 (3a'c''g' (3f'a'e' (3d'f'c' (3bd'a (3gbf | 
[V:3] F,2[F2A,2][F2A,2] C,2[F2A,2][F2A,2] | 
[V:1] B2d2[K:clef=bass]C,,4[K:clef=tenor]!wedge!C!wedge!E!wedge!Gc | 
[V:2] !wedge![g2e2] z2 !wedge!c'2!accent!!trill!g6{/fg} | 
[V:3] C,2[E2B,2][E2B,2] C,2[E2B,2][E2B,2] | 
[V:1] A2 z2 z2A6 | 
[V:2] !mordent!a2 ^ga{/c'}ba- [a'2a2] [a'/a/]=g' z/ [f'/a/]e' z/ | 
[V:3] F,2[F2C2][F2A,2] A,,2[G2^C2][G2A,2] | 
[V:1] f6F6 | 
[V:2] [g'/a/]f' z/ ef{/a}gf- [f'2f2] [f'/f/]_e' z/ [d'/f/]^c' z/ | 
[V:3] D,2[F2D2][F2A,2] F,,2[_E2A,2][E2F,2] | 
[V:1] d6D6 | 
[V:2] [_e'/f/]d' z/ ^cd{/f}_ed- .[d'2d2] [d'/d/]=c' z/ [b/d/]a z/ | 
[V:3] B,,2[D2B,2][D2F,2] D,,2 [C2^F,2][C2D,2] | 
[V:1] B4>B4A2_A2 | 
[V:2] [c'/d/]b z/ z ABc ^cd_e=ef^f | 
[V:3] G,,2[B,2G,2][B,2D,2] B,,2[C2F,2][D2_B,2] | 
[V:1] {/_A}!trill!G12{/FG} | 
[V:2] g2 [b'g']d' [g'_e']a [e'b]^f [bg]d [g_e]c | 
[V:3] _E,,2[_E2G,2][E2G,2] B,,2[E2G,2][E2G,2] | 
[V:1] G2B_AFD C2B,DFB | 
[V:2] .B2 z2 .b2!accent!!trill!f'6{/_e'f'} | 
[V:3] B,,2[D2_A,2][D2A,2] B,,2[D2A,2][D2A,2] | 
[V:1] !trill!G12{/FG} | 
[V:2] .g'2 (3g'b'd' (3_e'g'a (3b'e'^f (3gbd (3_egc | 
[V:3] _E,2[_E2G,2][E2G,2] B,,2[E2G,2][E2G,2] | 
[V:1] _A2.B2B,,2 B,,_A,B,DFB | 
[V:2] .B2 z2 .b2!accent!!trill!f'6{/_e'f'} | 
[V:3] B,,2[D2_A,2][D2A,2] B,,2[D2A,2][D2A,2] | 
[V:1] G2 z2 z2 _E,G,!wedge!B,!wedge!D!wedge!_E!wedge!G | 
[V:2] [g'_e']bg[g_e]BG!accent!G6 | 
[V:3] ._E,,2B,,2_E,2!accent![_E6E,6] | 
[V:1] F4z2 D,F,!wedge!G,!wedge!=B,!wedge!D!wedge!F | 
[V:2] [g'f']=bg[gf]=BG!accent!G6 | 
[V:3] .D,,2G,,2D,2[D6G,6] | 
[V:1] _E4z2 CEG=BcG | 
[V:2] [g'_e']c'g[g_e]cG!accent!G6 | 
[V:3] .C,,2C,2_E,2[_E6G,6] | 
[V:1] _e6^F6 | 
[V:2] [c''^f']_e'c'[c'^f]_ec [c^F]_EC[C^F,]_E,C, | 
[V:3] [_A,,2_A,,,2] G,,,G,,A,,,A,, G,,,G,,A,,,A,,A,,,A,, | 
[V:1] G4D2G4^F2 | 
[V:2] !wedge![=B,2G,2D,2] G,DGG, _EG,A,EGG, | 
[V:3] [G,,6G,,,6][G,,6C,,6] | 
[V:1] G4D2G4^F2 | 
[V:2] DG,=B,DGG, _EG,A,EGG,- | 
[V:3] [G,,6G,,,6][G,,6C,,6] | 
[V:1] G4z2z4z2 | 
[V:2] [D4=B,4G,4]d2g4^f2 | 
[V:3] [G,,4G,,,4][K:clef=treble]D2G4^F2 | 
[V:1] z12 | 
[V:2] g4d2g4[^f2^F2] | 
[V:3] G4D2G4z2 | 
[V:1]  [K:D] z12 | 
[V:2]  [K:D] [b6B6]-[b4B4][^a2^A2] | 
[V:3]  [K:D] [K:clef=bass][B,,2B,,,2][D2B,2F,2][D2B,2F,2] [D2B,2F,2]z4 | 
[V:1] z12 | 
[V:2] [c'6c6]-[c'4c4][b2B2] | 
[V:3] B,,2[D2B,2F,2][D2B,2F,2] [D2B,2F,2]z4 | 
[V:1] z12 | 
[V:2] [e'4e4][d'2d2] [d'2d2][c'2c2][b2B2] | 
[V:3] B,,2[D2B,2F,2][D2B,2F,2] [D2B,2F,2]z4 | 
[V:1] z12 | 
[V:2] [e'4e4][c'2c2][a6A6]- | 
[V:3] C,2[E2A,2E,2][E2A,2E,2] [E2A,2E,2]z4 | 
[V:1] z12 | 
[V:2] [a4A4][b2B2][g4G4][a2A2] | 
[V:3] .A,,2[C2A,2E,2][C2A,2E,2] [C2A,2E,2]z4 | 
[V:1] z12 | 
[V:2] .[f2F2] z [fF][aA][d'd][f'6f6]- | 
[V:3] .D,,2[D2A,2F,2][D2A,2F,2] [D2A,2F,2]z4 | 
[V:1] z4z2z4F,2 | 
[V:2] [f'2f2] z2 [f2F2][d'4d4][c'2c2] | 
[V:3] F,,2[E2^A,2F,2][E2A,2F,2] [E2A,2F,2]z4 | 
[V:1] B,6B,4^A,2 | 
[V:2] z2 .[D2B,2F,2].[D2B,2F,2].[D6B,6F,6] | 
[V:3] .[B,,2B,,,2]z4z4z2 | 
[V:1] C6C4B,2 | 
[V:2] z2 .[D2B,2F,2].[D2B,2F,2].[D6B,6F,6] | 
[V:3] [B,,2B,,,2]z4z4z2 | 
[V:1] E4D2 D2C2B,2 | 
[V:2] z2 .[D2B,2F,2].[D2B,2F,2].[D6B,6F,6] | 
[V:3] [B,,2B,,,2]z4z4z2 | 
[V:1] E4C2A,6 | 
[V:2] z2 [A,2E,2][A,2E,2][A,6E,6] | 
[V:3] [C,2C,,2]z4z4z2 | 
[V:1] A,4B,2G,4A,2 | 
[V:2] z2 .[C2A,2E,2].[C2A,2E,2].[C6A,6E,6] | 
[V:3] [A,,2A,,,2]z4z4z2 | 
[V:1] F,2 z !wedge!F,!wedge!A,!wedge!DF6- | 
[V:2] z2 .[D2G,2E,2].[D2G,2E,2].[D6G,6E,6] | 
[V:3] [D,2D,,2]z4z4z2 | 
[V:1] F4F,2D4C2 | 
[V:2] z2 [^A,2E,2][A,2E,2][A,6E,6] | 
[V:3] [F,,2F,,,2]z4z4z2 | 
[V:1] B,6z4z2 | 
[V:2] z2 .[B,2D,2].[B,2D,2] .[B,2D,2]z4 | 
[V:3] [B,,2B,,,2]z4z4z2 | 
[V:1] z12 | 
[V:2] d4>-d4B2G2 & =F6-F4F2 | 
[V:3] .G,,2.[D2G,2].[D2G,2] .[D2G,2]z4 | 
[V:1] z12[K:clef=bass] | 
[V:2] [=c4E4]>-[c4E4][d2G2][e2c2] | 
[V:3] .G,,2.[C2G,2].[C2G,2] .[C2G,2]z4 | 
[V:1] D,4>D,4B,,2G,2 | 
[V:2] .[d2B2] [G2D2B,2][G2D2B,2][G6D6B,6] | 
[V:3] [G,,2G,,,2]z4z4z2 | 
[V:1] _E,4>E,4=C,2G,2 | 
[V:2] !accent!G6-G4A2 & z2 [_E2=C2G,2][E2C2G,2][E6C6G,6] | 
[V:3] [C,2C,,2]z4x4x2 | 
[V:1] D,6z4z2 | 
[V:2] {/D}[d6B6][ec]>[dB] (3[dB][cA][BG] (3[BG][AD][GB,] | 
[V:3] [G,,2G,,,2][D2G,2][D2G,2] [D2G,2]z4 | 
[V:1] z12 | 
[V:2] [E2=C2]>[G2E2][=cG][e2c2]< [a2f2][ge] (3[ge][fd][ec] | 
[V:3] [G,,2G,,,2][E2=C2G,2][E2C2G,2] [E2C2G,2]z4 | 
[V:1] D,6D,^C,D,B,,G,,G, | 
[V:2] [d2B2] [G2D2B,2][G2D2B,2][G6D6B,6] | 
[V:3] [G,,2G,,,2]z4z4z2 | 
[V:1] _E,4=C,,2 C,,E,,G,,=C,E,G, | 
[V:2] !accent!G12- & z2 [_E2=C2G,2][E2C2G,2][E6C6G,6] | 
[V:3] [C,2C,,2]z4z4z2 | 
[V:1] D,6[K:clef=tenor]z !wedge!!accent!G,!wedge!F,!wedge!G,!wedge!B,!wedge!D | 
[V:2] G6x6 & z2 [D2B,2G,2][D2B,2G,2][D6B,6G,6] | 
[V:3] G,,2z4z4z2 | 
[V:1] G4>-G4 z2 z2 | 
[V:2] z4z2[_e'6_e6] | 
[V:3] [G,2G,,2][_E2B,2G,2][E2B,2G,2][E6B,6G,6] | 
[V:1] z4z2 z !wedge!_A,!wedge!G,!wedge!A,!wedge!=C!wedge!=E | 
[V:2] [_a'2_a2] z2 x2z4z2 | 
[V:3] [_A,2_A,,2][_E2=C2A,2][E2C2A,2][E6C6A,6] | 
[V:1] !accent!_A4>-A4 z2 z2 | 
[V:2] z4z2[=e'6=e6] | 
[V:3] [^G,2^G,,2][=E2=C2G,2][E2C2G,2][E6C6G,6] | 
[V:1] z4z2 z =A,!wedge!^G,!wedge!A,!wedge!^C!wedge!=E | 
[V:2] [a'2a2]z4z4z2 | 
[V:3] [A,2A,,2][E2^C2A,2][E2C2A,2][E6C6A,6] | 
[V:1] !accent!A4>-A4 z2 z2 | 
[V:2] z4z2[=f'6=f6] | 
[V:3] [A,2A,,2][=F2^C2A,2][F2C2A,2][F6C6A,6] | 
[V:1] z4z2 z !wedge!_B,!wedge!A,!wedge!B,!wedge!A,!wedge!B, | 
[V:2] [_b'2_b2]z4z4z2 | 
[V:3] [_B,2_B,,2][=F2D2B,2][F2D2B,2][F6D6B,6] | 
[V:1] D6z _B,A,B,A,B, | 
[V:2] z4z2[^f'6^f6] | 
[V:3] [_B,2_B,,2][^F2^D2B,2][F2D2B,2][F6D6B,6] | 
[V:1] _E6z _B,A,B,A,B, | 
[V:2] [_e'2_e2]z4[_g'4_g4][^f'2^f2] | 
[V:3] [_B,2_B,,2][_G2_E2B,2][G2E2B,2][G4E4B,4]z2 | 
[V:1] G12- | 
[V:2] [=G2=e'2^c'2g2] [G/E/C/]G,/[G/E/C/]G,/ [G/E/C/]G,/[G/E/C/]F,/ [G/E/C/]G,/[G/E/C/]G,/ [G/E/C/]G,/[G/E/C/]G,/ [G/E/C/]G,/[G/E/C/]G,/ | 
[V:3] [^A,,4^A,,,4]^A,,,/^A,,/A,,,/A,,/ A,,,/A,,/A,,,/A,,/ A,,,/A,,/A,,,/A,,/ A,,,/A,,/A,,,/A,,/ | 
[V:1] G12 | 
[V:2] [G/E/]C/[G/E/]C/[G/E/]C/[G/E/]C/[G/E/]C/[G/E/]C/[G/E/]C/[G/E/]C/[G/E/]C/[G/E/]C/[G/E/]C/[G/E/]C/ | 
[V:3] ^A,,/G,/^A,,/G,/^A,,/G,/^A,,/G,/^A,,/G,/^A,,/G,/^A,,/G,/^A,,/G,/^A,,/G,/^A,,/G,/^A,,/G,/^A,,/G,/ | 
[V:1] ^F12 | 
[V:2] [F/E/]^A,/[F/E/]A,/[F/E/]A,/[F/E/]A,/[F/E/]A,/[F/E/]A,/[F/E/]A,/[F/E/]A,/[F/E/]A,/[F/E/]A,/[F/E/]A,/[F/E/]A,/ | 
[V:3] [C,/F,,/]F,/[C,/F,,/]F,/[C,/F,,/]F,/[C,/F,,/]F,/[C,/F,,/]F,/[C,/F,,/]F,/[C,/F,,/]F,/[C,/F,,/]F,/[C,/F,,/]F,/[C,/F,,/]F,/[C,/F,,/]F,/[C,/F,,/]F,/ | 
[V:1] F6F4F2 | 
[V:2] [F/E/]^A,/[F/E/]^A,/[F/E/]^A,/[F/E/]^A,/[F/E/]^A,/[F/E/]^A,/[F/E/]^A,/[F/E/]^A,/[F/E/]^A,/[F/E/]^A,/[F/E/]^A,/[F/E/]^A,/ | 
[V:3] [C,/F,,/]F,/[C,/F,,/]F,/[C,/F,,/]F,/[C,/F,,/]F,/[C,/F,,/]F,/[C,/F,,/]F,/[C,/F,,/]F,/[C,/F,,/]F,/[C,/F,,/]F,/[C,/F,,/]F,/[C,/F,,/]F,/[C,/F,,/]F,/ | 
[V:1] B6B4^A2 | 
[V:2] [F/^D/]B,/[F/^D/]B,/[F/^D/]B,/[F/^D/]B,/[F/^D/]B,/[F/^D/]B,/[F/^D/]B,/[F/^D/]B,/[F/^D/]B,/[F/^D/]B,/[F/^D/]B,/[F/^D/]B,/ | 
[V:3] B,,/F,/B,,/F,/B,,/F,/B,,/F,/B,,/F,/B,,/F,/B,,/F,/B,,/F,/B,,/F,/B,,/F,/B,,/F,/B,,/F,/ | 
[V:1] c6c4B2 | 
[V:2] [F/^D/]B,/[F/^D/]B,/[F/^D/]B,/[F/^D/]B,/[F/^D/]B,/[F/^D/]B,/[F/^D/]B,/[F/^D/]B,/[F/^D/]B,/[F/^D/]B,/[F/^D/]B,/[F/^D/]B,/ | 
[V:3] B,,/F,/B,,/F,/B,,/F,/B,,/F,/B,,/F,/B,,/F,/B,,/F,/B,,/F,/B,,/F,/B,,/F,/B,,/F,/B,,/F,/ | 
[V:1] e4^d2 d2c2B2 | 
[V:2] [F/^D/]B,/[F/^D/]B,/[F/^D/]B,/[F/^D/]B,/[F/^D/]B,/[F/^D/]B,/[F/^D/]B,/[F/^D/]B,/[F/^D/]B,/[F/^D/]B,/[F/^D/]B,/[F/^D/]B,/ | 
[V:3] B,,/F,/B,,/F,/B,,/F,/B,,/F,/B,,/F,/B,,/F,/B,,/F,/B,,/F,/B,,/F,/B,,/F,/B,,/F,/B,,/F,/ | 
[V:1] ^A6^G6 | 
[V:2] [^G/E/]B,/[^G/E/]B,/[^G/E/]B,/[^G/E/]B,/[^G/E/]B,/[^G/E/]B,/[^G/E/]B,/[^G/E/]B,/[^G/E/]B,/[^G/E/]B,/[^G/E/]B,/[^G/E/]B,/ | 
[V:3] E,,/E,/E,,/E,/E,,/E,/E,,/E,/E,,/E,/E,,/E,/E,,/E,/E,,/E,/E,,/E,/E,,/E,/E,,/E,/E,,/E,/ | 
[V:1] ^G4G2^A4B2 | 
[V:2] [G/=D/]B,/[G/=D/]B,/[G/=D/]B,/[G/=D/]B,/[G/=D/]B,/[G/=D/]B,/[G/=D/]B,/[G/=D/]B,/[G/=D/]B,/[G/=D/]B,/[G/=D/]B,/[G/=D/]B,/ | 
[V:3] ^E,,/^E,/^E,,/^E,/^E,,/^E,/^E,,/^E,/^E,,/^E,/^E,,/^E,/^E,,/^E,/^E,,/^E,/^E,,/^E,/^E,,/^E,/^E,,/^E,/^E,,/^E,/ | 
[V:1] B,4>B,4C2^D2 | 
[V:2] [F/^D/]B,/[F/^D/]B,/[F/^D/]B,/[F/^D/]B,/[F/^D/]B,/[F/^D/]B,/[F/^D/]B,/[F/^D/]B,/[F/^D/]B,/[F/^D/]B,/[F/^D/]B,/[F/^D/]B,/ | 
[V:3] F,,/F,/F,,/F,/F,,/F,/F,,/F,/F,,/F,/F,,/F,/F,,/F,/F,,/F,/F,,/F,/F,,/F,/F,,/F,/F,,/F,/ | 
[V:1] E4>-E4^G,2^A,2 | 
[V:2] ^A,/E,/^A,/E,/^A,/E,/^A,/E,/^A,/E,/^A,/E,/^A,/E,/^A,/E,/^A,/E,/^A,/E,/^A,/E,/^A,/E,/ | 
[V:3] F,,,/F,,/F,,,/F,,/F,,,/F,,/F,,,/F,,/F,,,/F,,/F,,,/F,,/F,,,/F,,/F,,,/F,,/F,,,/F,,/F,,,/F,,/F,,,/F,,/F,,,/F,,/ | 
[V:1] B,2 z2 z2z4z2 | 
[V:2] [B,2^G,2=D,2] .[d2B2^E2].[d2B2E2].[d6B6E6] | 
[V:3] [^E,,2^E,,,2] .^G,2.G,2.G,6 | 
[V:1] z12 | 
[V:2] .[^d2^B2F2].[d2B2F2].[d2B2F2].[d6B6F6] | 
[V:3] .^G,2.G,2.G,2.G,6 | 
[V:1] =c12 | 
[V:2] .[e2=c2=G2].[e2c2G2].[e2c2G2].[e6c6G6] | 
[V:3] =G,2.G,2.G,2.G,6 | 
[V:1] B12 | 
[V:2] .[d2B2=F2].[d2B2F2].[d2B2F2].[d6B6F6] | 
[V:3] .G,2.G,2.G,2.G,6 | 
[V:1] ^A4z2z4z2 | 
[V:2] .[c2^A2E2].[c2A2E2].[c2A2E2].[c6A6E6] | 
[V:3] .G,2.G,2.G,2.G,6 | 
[V:1] z12 | 
[V:2] .[c2^A2E2].[c2A2E2].[c2A2E2].[c6A6E6] | 
[V:3] .F,2.F,2.F,2.F,6 | 
[V:1] _B12 | 
[V:2] .[d2_B2=F2].[d2B2F2].[d2B2F2].[d6B6F6] | 
[V:3] .=F,2.F,2.F,2.F,6 | 
[V:1] A12 ||  
[V:2] .[c2A2_E2].[c2A2E2].[c2A2E2].[=B6A6^D6] ||  
[V:3] .F,2.F,2.F,2.F,6 ||  
[V:1]  [K:A] ^G2 z2 z2z4z2 | 
[V:2]  [K:A] [e2^G2E2] ^^FG=A^A B=c^cd^de | 
[V:3]  [K:A] [B,2E,2]z4z4z2 | 
[V:1] z12 | 
[V:2] fecAFE ^DA,B,DGF | 
[V:3] [C2E,2A,,2]z4B,,6 & x6xA,4x | 
[V:1] z2 z2 E2 E2 z2 E2 | 
[V:2] [E2B,2G,2]z4[G2=D2]z4 | 
[V:3] [E,2E,,2]z4.[B,2E,2]z4 | 
[V:1] E4=c4G2A2 | 
[V:2] [A2=C2]z4[E2C2]z4 | 
[V:3] [E,2A,,2]z4[E,2A,,2]z4 | 
[V:1] B2 z2 z2z4z2 | 
[V:2] [G2B,2] ^^fga^a b^bc'd'^d'e' | 
[V:3] [E,2E,,2]z4z4z2[K:clef=treble] | 
[V:1] z12 | 
[V:2] f'e'c'afe ^dABdgf | 
[V:3] [c2E2A,2]z4[K:clef=bass]B,6 | 
[V:1] z4!accent!E2- E2 z2 !accent!E2 | 
[V:2] .[e2^G2]z4.[=d2G2]z4 | 
[V:3] [E2E,2]z4E,2z4 | 
[V:1] E2e2d4=c2A2 | 
[V:2] [=c2A2E2]z4[A2E2=C2]z4 | 
[V:3] .A,,2z4.A,2z4 | 
[V:1] E2 z2 z2z4z2 | 
[V:2] [e''2e'2] [d''a'][c''_a'][=c''g'][b'f'] [_b'=f'][=a'e'][_a'_e'][=g'd'][_g'_d'][=f'=c'] | 
[V:3] [E,2E,,2][K:clef=treble] f'=f'e'^d' =d'^c'=c'b_ba[K:clef=bass] | 
[V:1] z12[K:clef=bass] | 
[V:2] [e'=b][_e'_b][d'a][_d'_a][=c'=g][=bf] [_b=f][=a=e][_a_e][g=d][_g_d][=f=c] | 
[V:3] B,=B,A,=A,G,^F, =F,^E,=E,=D,_D,C, | 
[V:1] E,,2 F,,=G,,^G,,A,, ^A,,B,,=C,^C,D,^D, | 
[V:2] [e2B2] [_e_B][dA][_d_A][=c=G] [=B^F][_B=F][A=E][_A_E][GD][_G_D] | 
[V:3] B,,2 =B,,A,,=A,,G,,[K:clef=bass] ^D=D^C=CB,_B, | 
[V:1] E,=F,^F,=G,^G,A, ^A,B,=C^CD^D | 
[V:2] [=F=C][EB,][_E_B,][DA,][_D_A,][C=G,] [=B,F,][_B,=F,][A,E,][_A,_E,][G,D,][=F,=C,] | 
[V:3] A,^G,=G,F,=F,E, ^D,=D,C,=C,=B,,A,, | 
[V:1] E2 z2[K:clef=tenor]!accent!E4z2 !accent!E2 | 
[V:2] [E,2B,,2]z4!accent![d4B4G4E4D4]z2 | 
[V:3] [^G,,2E,,2]z4[B,4E,4]z2[K:clef=treble] | 
[V:1] E2 z2!accent!E4z2 !accent!E2- | 
[V:2] !accent![e'4b4g4e4d4]z2[E4D4]z2 | 
[V:3] [G4E4]z2[K:clef=bass][B,4E,4]z2 | 
[V:1] E2 z2 E2!accent!A4G2 | 
[V:2] C2 z2 [E2C2] [A2C2]z2[G2C2] | 
[V:3] [E,2A,,2]z2[E,2A,,2] [E,2A,,2]z2[E,2A,,2] | 
[V:1] A4E2A4G2 | 
[V:2] [A2C2]z2[E2C2] [A2C2]z2[G2C2] | 
[V:3] [E,2A,,2]z2[E,2A,,2] [E,2A,,2]z2[E,2A,,2] | 
[V:1] A4E2A4G2 | 
[V:2] [A2C2]z2E2 A2A2G2 | 
[V:3] [E,2A,,2] z2 E,2 .A,2.A,2.G,2 | 
[V:1] .F2.G2.A2B6 | 
[V:2] F2G2A2[b6^d6B6A6] | 
[V:3] .F,2.G,2.A,2[B,6F,6B,,6] | 
[V:1] E2 z2 E2d4B2 | 
[V:2] [e4G4]z2 .[=d2F2=D2]z2.[B2F2D2] | 
[V:3] [B,4E,4]z2 [B,2B,,2]z2D,2 | 
[V:1] ^A4[K:clef=treble]F2f4e2 | 
[V:2] [^A2F2C2] z2 F2-F6 & x6E6 | 
[V:3] F,2 z2 z2 F,2G,2^A,2 | 
[V:1] e2d2c2 c2B2.A2 | 
[V:2] [F2D2]z2[F2C2] [F2B,2]z2[A2F2B,2] | 
[V:3] !wedge![B,2B,,2]z2C,2 D,2z2^D,2 | 
[V:1] G4G2 {/B} A2G2A2 | 
[V:2] [G2E2B,2] z2 =D2 [A2C2]z4 | 
[V:3] E,2z4[E,2A,,2]z4 | 
[V:1] B2 z2 .B2e4z2 | 
[V:2] [B2G2E2B,2]z4z4[B2G2E2B,2] | 
[V:3] [E,2E,,2]z4z4[E,2E,,2] | 
[V:1] z4B2f4z2 | 
[V:2] [B2A2F2B,2]z4z4[B2A2F2B,2] | 
[V:3] [^D,2^D,,2]z4z4[D,2D,,2] | 
[V:1] z4B2e4z2 | 
[V:2] [B2G2E2B,2]z4B,EGBec' | 
[V:3] [E,2E,,2]z4z4[K:clef=treble][G2E2] | 
[V:1] z4B2f4z2[K:clef=bass] | 
[V:2] !wedge![b2f2B2]z4B,DFB[b^d]a | 
[V:3] [A2^D2B,2]z4z4[K:clef=bass][B,2B,,2] | 
[V:1] E,,B,,G,B,,E,,2 E,,B,,G,B,,E,,2 | 
[V:2] [g2e2] z2 (3bBb !wedge![e'2e2] z2 (3^d'^dd' | 
[V:3] !wedge![E,2E,,2][E2B,2G,2][E2B,2G,2] [E2B,2G,2][E2B,2G,2][E2B,2G,2] | 
[V:1] !accent!C,^A,EA,C,2 !accent!C,^A,EA,C,2 | 
[V:2] !wedge![f'2f2] z2 (3e'ee' !wedge![^d'2^d2] z2 (3c'cc' | 
[V:3] C,2[E2^A,2F,2][E2A,2F,2] [E2A,2F,2][E2A,2F,2][E2A,2F,2] | 
[V:1] B,,=A,^DA,B,,2 B,,A,DA,B,,2 | 
[V:2] !wedge![c'2c2] z2 (3bBb !wedge![^a2^A2] z2 (3bBb | 
[V:3] B,,2[^D2=A,2F,2][D2A,2F,2] [D2=A,2F,2][D2A,2F,2][D2A,2F,2] | 
[V:1] B,,A,^DA,B,,2 B,,A,DA,B,,2 | 
[V:2] !wedge![^d'2^d2] z2 (3c'cc' !wedge![b2B2] z2 (3aAa | 
[V:3] B,,,2[^D2=A,2F,2][D2A,2F,2] B,,2[D2A,2F,2][D2A,2F,2] | 
[V:1] E,,B,,G,B,,E,,2 E,,B,,G,B,,E,,2 | 
[V:2] [g2G2] z2 (3e'ee' [^d'2^d2] z2 (3e'ee' | 
[V:3] [E,2E,,2][E2B,2G,2][E2B,2G,2] [E2B,2G,2][E2B,2G,2][E2B,2G,2] | 
[V:1] ^A,,F,EF,A,,2 A,,F,EF,A,,2 | 
[V:2] [f2F2] z2 (3e'ee' [^d'2^d2] z2 (3c'cc' | 
[V:3] ^A,,2[E2C2F,2][E2C2F,2] [E2C2F,2][E2C2F,2][E2C2F,2] | 
[V:1] B,,G,EG,B,,2 B,,G,^EG,B,,2 | 
[V:2] [c'2c2] z2 (3bBb [c'2c2] z2 (3bBb | 
[V:3] B,,2[E2B,2G,2][E2B,2G,2] B,,2[^E2B,2G,2][E2B,2G,2] | 
[V:1] B,,A,FA,B,,2 B,,A,^DA,B,,2 | 
[V:2] [c'2c2] z2 (3bBb [a2^d2B2A2]z[gdBA][f2d2B2A2] | 
[V:3] B,,2[F2^D2A,2][F2D2A,2] B,,2[F2B,2][F2B,2] | 
[V:1] E,,2 z2 z2[K:clef=tenor]E6 | 
[V:2] [e2G2]z4z4z2 | 
[V:3] [E2B,2E,2]z4z4z2 | 
[V:1] E6=C4=D2 | 
[V:2] [A12A,12] | 
[V:3] [=F,12=F,,12] | 
[V:1] E2 z2 z2E6 | 
[V:2] [G2E2B,2]z4z4z2 | 
[V:3] [E,2E,,2]z4z4z2 | 
[V:1] E6=C4E2 | 
[V:2] [A12A,12] | 
[V:3] [=F,12=F,,12] | 
[V:1] E4z2E4z2 | 
[V:2] [G2E2G,2]z4!accent![e2B2G2E2D2]z4 | 
[V:3] [E,2E,,2]z4[B,2E,2]z4[K:clef=treble] | 
[V:1] E4z2E4z2 | 
[V:2] !accent![e'2b2g2e2d2]z4!accent![e2B2G2E2D2]z4 | 
[V:3] [B2E2]z4[K:clef=bass][E,,2E,2]z4 | 
[V:1] E2 z2 E2A4G2 | 
[V:2] CEAcee' c'aecAE | 
[V:3] .A,,2C2E,2 .A,,2C2E,2 | 
[V:1] A4E2A4G2 | 
[V:2] CEAcee' c'aecAE | 
[V:3] .A,,2C2E,2 .A,,2C2E,2 | 
[V:1] A4E2A4G2 | 
[V:2] CEAece ae'c'e'a'e'' | 
[V:3] A,,2C2.E,2 .A,,2C2E,2 | 
[V:1] .F2.G2.A2B6 | 
[V:2] c''b'a'g'f'e' ^d'c'bagf | 
[V:3] .A,,2C2F,2 .B,,2^D2A,2 | 
[V:1] E4[K:clef=treble]E2d4B2 | 
[V:2] .e.^d.=d.c.=c.B ^A=A^G=GF{/A}G | 
[V:3] [E2G,2E,2]z4[=D6B,6] | 
[V:1] ^A4F2f4e2- | 
[V:2] F^Acf^af' c'afcFf | 
[V:3] [C2F,2]z4[F,,2F,2][G,,2G,2][^A,,2^A,2] | 
[V:1] e2^d2B2-B2!wedge!e2=d2- | 
[V:2] =A^dba^d'b' g'=d'bg=dB | 
[V:3] [B,6B,,6]E,6 | 
[V:1] d2!wedge!c2A2 A2d2F2 | 
[V:2] z ca=gc'a' f'd'afdA | 
[V:3] [E6A,6]!arpeggio![F6A,6D,6] | 
[V:1] A12- | 
[V:2] EAeAEA EAeAEA | 
[V:3] C6=C6 & E,12- | 
[V:1] A2G2F2 {/A}!trill!G6{/FG} | 
[V:2] DAeADA DGeGDG | 
[V:3] [B,6E,6][E,6E,,6] | 
[V:1] A2 z2 z2z4z2 | 
[V:2] [A2C2] [c'a]e[^b^d]e [c'a]e[ac]e[c'a]e | 
[V:3] A,,2 E,2[C2A,2] E2z4[K:clef=treble] | 
[V:1] z12 | 
[V:2] [ac]e[c'a]e'[^b'^d']e' [c''a']e'[a'c']e'[c''a']e' | 
[V:3] A,2 E2[c2A2]e6 | 
[V:1] z12 | 
[V:2] x2 g'f'e'2 d'^c'b2 ^gf & [a'2c'2] =c'2b2 =g2f2 =c2 | 
[V:3] a2 [a2^d2][g2e2] [e2^A2][=d2B2] [=A2^D2] | 
[V:1] z4z2z4[K:clef=bass]=F,,2 | 
[V:2] e2 d^cB2 ^GFE2 [B2A2D2B,2] & B2 =G2F2 =C2B,2 x2 | 
[V:3] [G2E2][K:clef=bass] [E2^A,2][D2B,2] [=A,2^D,2][G,2E,2] [=F,2=F,,2] | 
[V:1] D,,2 z2 z2z4=F,,2 | 
[V:2] [=f2B2A2=F2] [ba]=g'!accent!=f'2 [BA]=g!accent!f2 [B2A2D2] | 
[V:3] [D,2D,,2][K:clef=treble] [=fd]B=F2[K:clef=bass] [=FD]B,=F,2 .[F,2=F,,2] | 
[V:1] D,,2 z2 z2z4=F,,2 | 
[V:2] .[=f2B2A2=F2] [BA]=gf2 [B,A,]=GF2 [B,2A,2D,2] | 
[V:3] .[D,2D,,2] [=FD]B,=F,2 [F,D,]B,,=F,,2 [=F,,2=F,,,2] | 
[V:1] E,,2z4E,2z4 | 
[V:2] [E2G,2D,2] D,G,CD Gcdgc'd' | 
[V:3] [E,,2E,,,2]z4!accent!E2E,2[D2B,2] | 
[V:1] E2 z2 z2 E,2 z2 z2 | 
[V:2] c''b'g'd'c'b gdcBGD | 
[V:3] !accent!E2E,2[D2B,2] !accent!E2z4 | 
[V:1] A,,2 z2 z2z4z2 | 
[V:2] [A2C2] [c'a]e[^b^d]e [c'a]e[ac]e[c'a]e | 
[V:3] [A,2A,,2]z4E,2[C2A,2]E2[K:clef=treble] | 
[V:1] z12 | 
[V:2] [ac]e[c'a]e'[^b'^d']e' [c''a']e'[a'c']e'[c''a']e' | 
[V:3] A4>E4[c2A2]e2 | 
[V:1] z12 | 
[V:2] x2 (3f'g'f'e'2 (3=c'=d'=c'b2 (3[f=c]^gf & .[a'2c'2] =c'2b2 =g2f2 x2 | 
[V:3] a2 [a2^d2][g2e2] [e2^A2][=d2B2] [=A2^D2] | 
[V:1] z4z2z4=F,,2 | 
[V:2] [e2B2] (3[c=G]dc[B2F2] (3[F=C]^GF[E2B,2] [B2A2D2B,2] | 
[V:3] [G2E2][K:clef=bass] [E2^A,2][D2B,2] [=A,2^D,2][G,2E,2] [=F,2=F,,2] | 
[V:1] D,,2 z2 z2z4=F,,2 | 
[V:2] [=f2B2A2=F2] [ba]=g'=f'2 [BA]=gf2 [B2A2D2] | 
[V:3] .[D,2D,,2][K:clef=treble] [=fd]B=F2[K:clef=bass] [=FD]B,=F,2 [=F,2=F,,2] | 
[V:1] D,,2 z2 z2z4=F,,2 | 
[V:2] [=f2B2A2=F2] [BA]=g=f2 [B,A,]=GF2 [B,2A,2] | 
[V:3] [D,2D,,2] [=FD]B,=F,2 [=F,D,]B,,=F,,2 [=F,,2=F,,,2] | 
[V:1] E,,2 z2 z2 E,2 z2 z2 | 
[V:2] [E2G,2E,2] D,G,CD Gcdgc'd' | 
[V:3] [E,,2E,,,2]z4!accent!E2E,2[D2B,2] | 
[V:1] E2 z2 z2 E,2 z2 z2 | 
[V:2] [e''c'']b'g'd'[e'c']b gd[ec]BGD | 
[V:3] E2E,2[D2B,2] E2z4 | 
[V:1] A,,2 z2 z2z4z2 | 
[V:2] !wedge![A2C2] c^de^e gegf.f'2 | 
[V:3] A,,2z4[K:clef=treble][A2F2]C2A,2 | 
[V:1] A,2 z2 z2 G,2 z2 z2 | 
[V:2] e^^ce^d.^d'2 fdfe.e'2 | 
[V:3] [B2F2]^D2A,2 [B2E2]B,2G,2 | 
[V:1] B,2 z2 z2z4z2 | 
[V:2] z2 =de^ef afa=g.=g'2 | 
[V:3] [K:clef=bass][B,,2B,2]z4[K:clef=treble][B2=G2]D2B,2 | 
[V:1] B,2 z2 z2 A,2 z2 z2 | 
[V:2] f=ef^e^e'2 gegff'2 | 
[V:3] [c2=G2]C2B,2 [c2F2]C2A,2[K:clef=bass] | 
[V:1] D2 z2 z2 C2 z2 z2 | 
[V:2] z2 fga^a c'ac'bb'2 | 
[V:3] !wedge![D2D,2][K:clef=treble] [B2F2]B,2[K:clef=bass] [C2C,2][K:clef=treble] [B2^E2]B,2 | 
[V:1] D2 z2 z2C,6- | 
[V:2] z2 fg=a^a c'ac'bd''2 | 
[V:3] [b2B2][K:clef=treble] [B2F2]B,2[K:clef=bass] [C2C,2][K:clef=treble] [B2^E2]G,2[K:clef=bass] | 
[V:1] C,12- | 
[V:2] ^c''^a'b'=a'_b'^g' a'=g'_a'f'g'=f' | 
[V:3] [C,12C,,12] | 
[V:1] C,12 | 
[V:2] _g'=e'=f'_e'f'd' f'_d'f'=c'f'=b | 
[V:3] [=F12B,12A,12_D,12] | 
[V:1] =C,2 z2 z2[K:clef=tenor][=G6_B,6] | 
[V:2] =c'=d'c'a'c'=a _bc'b=g'be | 
[V:3] !arpeggio![=F2A,2=C,2]z4^C,2[E2_B,2=G,2]C,2 | 
[V:1] [^F6A,6][=F6_A,6] | 
[V:2] a_ba^f'a_e ^g^ag=f'gd | 
[V:3] _E,2[F2=C2A,2]E,2[K:clef=treble] =F,2[G2=D2B,2]F,2 | 
[V:1] [E6=G,6][_E6_G,6] | 
[V:2] =gage'gc f^gf_e'f=c | 
[V:3] =G,2[^A2E2^C2]G,2 =A,2[=c2F2_E2]A,2 | 
[V:1] [D6=F,6][=C6^F,6] | 
[V:2] ^efed'eB ^d=ed=c'dA | 
[V:3] B,2[G2^E2]B,2 =C2[A2F2][K:clef=bass] F,2 | 
[V:1] [^C2E,2] z2 z2z4z2 | 
[V:2] [e2c2A2E2] e''e' c''c' a'a f'f e'e | 
[V:3] [C2A,2E,2][K:clef=treble] [e2E2][c2C2] [A2A,2][K:clef=bass][F2F,2][E2E,2] | 
[V:1] z12 | 
[V:2] c'c aA fF eE cC AA, | 
[V:3] [C2C,2][A,2A,,2][F,2F,,2] [E,2E,,2][C,2C,,2][A,,2A,,,2] | 
[V:1] z12 | 
[V:2] E2z4[=fA]=cfa=f'2 | 
[V:3] [E,2E,,2E,,,2]z4!arpeggio![=F6=C6A,6E,6] | 
[V:1] z12 | 
[V:2] [^f^A]^cf^a^f'2 [gB]egbg'2 | 
[V:3] !arpeggio![F6^C6^A,6E,6]!arpeggio![G6D6B,6E,6] | 
[V:1] A,2FECA, !accent!C2BAEC | 
[V:2] [a'2e'2a2]z4[C2A,2]z4 | 
[V:3] [C2E,2A,,2]z4E,2z4 | 
[V:1] !accent!E2[K:clef=treble]dcAE A2fecA | 
[V:2] [E2A,2]z4.[A2C2]z4 | 
[V:3] C,2z4A,,2z4 | 
[V:1] BbAaGg FfEe^D^d | 
[V:2] [^D12B,12-A,12-] | 
[V:3] [F,12F,,12] | 
[V:1] =D<=d BcdB[K:clef=tenor] F2EDB,C | 
[V:2] [=D2B,2A,2]z4[=D2G,2]z4 | 
[V:3] [=F,2=F,,2]z4[E,2E,,2]z4 | 
[V:1] A,2FECA, !accent!C2BAEC | 
[V:2] [C2A,2]z4[C2A,2]z4 | 
[V:3] [E,2A,,2]z4E,2z4 | 
[V:1] !accent!E2[K:clef=treble]dcAE !accent!A2fecA | 
[V:2] [E2A,2]z4[A2C2]z4 | 
[V:3] C,2z4A,,2z4 | 
[V:1] BbaAGg fFEe^d^D | 
[V:2] [B12^D12B,12A,12] | 
[V:3] [F,6F,,6]B,,6 | 
[V:1] =D2=dcBA G2cBGA | 
[V:2] [=D2B,2G,2]z4[C2B,2G,2]z4 | 
[V:3] E,2z4^E,2z4 | 
[V:1] F2>C2D^E FGA^AB^B | 
[V:2] [C2A,2][F2C2A,2] z2z4z2 | 
[V:3] [F,2F,,2][F,2F,,2] z2z4z2 | 
[V:1] c2>=B2dG B^EGDC.E | 
[V:2] z2 .[F2G,2].[F2G,2] z2 .[^E2B,2].[E2B,2] | 
[V:3] C,,2z4C,2z4 | 
[V:1] F2>[K:clef=tenor] C2^D^E FGA^AB^B | 
[V:2] .[F2A,2].[A2F2C2A,2F,2] z2z4z2 | 
[V:3] [F,2F,,2][C,2F,,2] z2z4z2 | 
[V:1] c2>^A2BG =AB[EA,]=GA,!wedge!C | 
[V:2] z2 .[=G2C2A,2].[G2C2A,2] z2 .[G2C2A,2].[G2C2A,2] | 
[V:3] [E,2E,,2]z4.[A,,2A,,,2]z4 | 
[V:1] D4F,=G, A,B,CDEF | 
[V:2] z2 .[F2D2A,2].[F2D2A,2] z2 .[F2D2A,2].[F2D2A,2] | 
[V:3] .D,,2z4.D,2z4 | 
[V:1] A2=G2 G<E E<C!beambr1!C<A,!beambr1!A,/=G,3/[K:clef=treble] | 
[V:2] z2 [E2B,2][E2B,2] z2 .[=G2C2].[G2C2] | 
[V:3] .=G,,2z4.A,,2z4 | 
[V:1] .G2[K:clef=bass].D,,2[K:clef=tenor]!accent![A,2F,2] A,B,CDEF | 
[V:2] z2 .[F2D2].[F2D2A,2] z2 .[F2D2=C2].[F2D2C2] | 
[V:3] .D,,2z4D,2z4 | 
[V:1] A2=G2 G<=F F<D!beambr1!D<B,!beambr1!B,/=F,3/ | 
[V:2] z2 [=F2D2=C2][F2D2C2] z2 .[F2D2B,2].[F2D2B,2] | 
[V:3] =G,,2z4=G,2z4 | 
[V:1] E,2[K:clef=bass]=C,,2[K:clef=tenor]!accent![=C2-E,2] C2B,CCE | 
[V:2] z2 .[E2=C2].[E2=G,2] z2 .[E2^G,2].[E2A,2] | 
[V:3] =C,2z4C,2z4 | 
[V:1] E2^D2 DE F^GABc^d | 
[V:2] z2 .[F2A,2].[F2A,2] z2 .[^D2A,2].[F2A,2] | 
[V:3] B,,2z4B,,2z4 | 
[V:1] e2 z2!accent!E,4E4 | 
[V:2] [E2^G,2] z2z4z4 | 
[V:3] [E,2E,,2] z2z4z4 | 
[V:1] =D2cBFD B,2AGDB, | 
[V:2] [F2B,2]z2[F2B,2] [G2D2]z2[G2D2] | 
[V:3] E,,6E,6 | 
[V:1] A,2FECA, C2BAEC | 
[V:2] [A2C2]z2[A2C2-] [E2C2]z2[E2C2] | 
[V:3] E,,6E,6 | 
[V:1] D2cBFD B,2AGDB, | 
[V:2] [F2B,2]z2[F2B,2] [G2D2]z2[G2D2] | 
[V:3] E,,6E,6 | 
[V:1] A,2FECA, C2BAEC | 
[V:2] [A2C2]z2[A2C2-] [E2C2]z2[E2C2] | 
[V:3] E,,6E,6 | 
[V:1] D2cBFD ^D2cBFD[K:clef=treble] | 
[V:2] [F2B,2]z2[F2B,2] [F2B,2]z2[B,2A,2] | 
[V:3] E,,6E,6 | 
[V:1] EeFfEe ^D^dEeDd | 
[V:2] x6x6 | 
[V:3] [B,6G,6E,6][=C6A,6E,6] | 
[V:1] Ee=F=fEe ^D^dEeDd | 
[V:2] [B,6G,6][C6A,6] | 
[V:3] E,6E,6 | 
[V:1] Ee=F=fEe FfEeFf | 
[V:2] [B,6G,6]B,6 | 
[V:3] E,6[G,6E,6D,6] | 
[V:1] Ee^FfEe FfEeFf | 
[V:2] [C6A,6][D6G,6] | 
[V:3] [E,6C,6][E,6B,,6] | 
[V:1] EeGgAa Bbcc'^d^d' | 
[V:2] [C2A,2]z4[^D2B,2A,2]z4 | 
[V:3] [E,2A,,2]z4[F,2F,,2]z4 | 
[V:1] e'2z4[K:clef=bass][E2G,2B,,2E,,2]z4 | 
[V:2] [E2C2A,2]z4[g2e2d2B2G2]z4 | 
[V:3] [E,2E,,2]z4[E2B,2E,2]z4 | 
[V:1] A,,2 z2[K:clef=tenor] E2A4G2 | 
[V:2] A,CAAca cAACA,C | 
[V:3] A,,E,A,A,EA EA,A,E,C,E, | 
[V:1] A4^E2A4G2 | 
[V:2] A,CAAca cAACA,C | 
[V:3] A,,^E,A,A,^EA EA,A,E,A,,E, | 
[V:1] A4F2A4G2 | 
[V:2] A,CAAca cAACA,C | 
[V:3] A,,F,A,A,FA FA,A,F,A,,F, | 
[V:1] .F2.G2.A2B6 | 
[V:2] A,^DBDA,D =DGeGDG | 
[V:3] B,,F,B,F,B,,F, E,B,EB,E,B, | 
[V:1] A2 z2 E2A4G2 | 
[V:2] Acaac'a' c'aacAc | 
[V:3] [K:clef=treble]A,EAAea eAAEA,E | 
[V:1] A4^E2A4G2 | 
[V:2] Acaac'a' c'aacAc | 
[V:3] A,^EAA^ea eAAEA,E | 
[V:1] A4F2A4G2 | 
[V:2] Acaac'a' c'aacAc | 
[V:3] A,FAAfa fAAFA,F | 
[V:1] .F2.G2.A2B6 | 
[V:2] A^dbdAd =dge'gdg | 
[V:3] B,FBFB,F EBeBEB | 
[V:1] e6[K:clef=treble]!accent!e6- | 
[V:2] aae'a'e'a eebe'be | 
[V:3] [c2E2A,2]z4[K:clef=bass]!arpeggio![G2D2E,2]z4 | 
[V:1] e6!accent!e6- | 
[V:2] AAeaeA EEBeBE | 
[V:3] !arpeggio![C2E,2A,,2]z4!arpeggio![G,2D,2E,,2]z4 | 
[V:1] e2cAEC D2EGBe | 
[V:2] AAeaeA EEBeBE | 
[V:3] !arpeggio![C2E,2A,,2]z4!arpeggio![G,2D,2E,,2]z4 | 
[V:1] c2CEAc e2EGBe | 
[V:2] A,A,EAEA, E,E,B,EB,E, | 
[V:3] !arpeggio![C,2E,,2A,,,2]z4!arpeggio![G,,2D,,2E,,,2]z4 | 
[V:1] a6a6- | 
[V:2] A,,6-(3:2:6A,,B,,C,D,E,F,(3G,A,B, | 
[V:3] A,,,6-(3:2:6A,,,B,,,C,,D,,E,,F,,(3G,,A,,B,, | 
[V:1] a2e2a2 c'2e'2c'2 | 
[V:2] (19:16:19C//D//E//F//G//A//B//c//d//e//f//g//a//b//c'//d'//e'//f'//g'// | 
[V:3] (19:16:19C,//D,//E,//F,//G,//A,//B,//C//D//E//[K:clef=treble]F//G//A//B//c//d//e//f//g//[K:clef=treble] | 
[V:1] a'2 z2 z2[K:clef=bass] [A2C2E,2A,,2]z4 | 
[V:2] .a'2z4!arpeggio![c2A2E2C2]z4 | 
[V:3] .a2z4!arpeggio![f2c2F2]z4 | 
[V:1] [C2A,2E,2A,,2]z4[A2C2E,2A,,2]z4 | 
[V:2] f2z4!arpeggio![a'2e'2a2]z4 | 
[V:3] [F2F,2]z4[K:clef=treble]!arpeggio![c2E2A,2]z4 | 
[V:1] !fermata!A,,12 |]  
[V:2] !fermata!f12 |]  
[V:3] !fermata![F12F,12] |]
